X:5
T:Walter Bulwer's Polka No. 2
R:Polka
M:4/4
L:1/4
Z: Steve Mansfield 17/09/2006
K:G
DGGF/G/ | AEE2 | F/G/A F/G/A | BGGF/E/ | DGGF/G/ | AEE2 | 
F/G/A/F/ DE/F/ | GB G2 ::[K:D] AABB | A/G/F/G/AA | G/F/E/F/GG |
F/E/D/E/FF | AABB | A/G/F/G/AA | G/F/E/F/ G/A/B/c/ | dd d2 :|
<end>
<start>
